;FLAVOR:Marlin
;TIME:11027
;Filament used: 8.43497m
;Layer height: 0.2
;MINX:80.862
;MINY:80.563
;MINZ:0.2
;MAXX:154.754
;MAXY:154.467
;MAXZ:66.8
;Generated with Cura_SteamEngine 4.13.1
M140 S50
M105
M190 S50
M104 S200
M105
M109 S200
M82 ;absolute extrusion mode
; Ender 3 Custom Start G-code
G92 E0 ; Reset Extruder
G28 ; Home all axes
G1 Z2.0 F3000 ; Move Z Axis up little to prevent scratching of Heat Bed
G1 X0.1 Y20 Z0.3 F5000.0 ; Move to start position
G1 X0.1 Y200.0 Z0.3 F1500.0 E15 ; Draw the first line
G1 X0.4 Y200.0 Z0.3 F5000.0 ; Move to side a little
G1 X0.4 Y20 Z0.3 F1500.0 E30 ; Draw the second line
G92 E0 ; Reset Extruder
G1 Z2.0 F3000 ; Move Z Axis up little to prevent scratching of Heat Bed
G1 X5 Y20 Z0.3 F5000.0 ; Move over to prevent blob squish
G92 E0
G92 E0
G1 F2700 E-5
;LAYER_COUNT:334
;LAYER:0
M107
G0 F6000 X84.06 Y83.827 Z0.2
;TYPE:SKIRT
G1 F2700 E0
G1 F1200 X84.748 Y83.19 E0.03119
G1 X85.488 Y82.614 E0.06237
G1 X86.274 Y82.102 E0.09357
G1 X87.101 Y81.66 E0.12476
G1 X87.963 Y81.29 E0.15596
G1 X88.853 Y80.994 E0.18716
G1 X89.765 Y80.776 E0.21835
G1 X90.692 Y80.635 E0.24953
G1 X91.563 Y80.576 E0.27857
G1 X91.884 Y80.567 E0.28925
G1 X92.192 Y80.563 E0.29949
G1 X143.047 Y80.563 E1.99094
G1 X143.903 Y80.574 E2.01941
G1 X144.839 Y80.628 E2.05059
G1 X145.767 Y80.76 E2.08177
G1 X146.681 Y80.972 E2.11298
G1 X147.573 Y81.261 E2.14416
G1 X148.438 Y81.624 E2.17536
G1 X149.268 Y82.06 E2.20655
G1 X150.059 Y82.565 E2.23776
G1 X150.803 Y83.136 E2.26895
G1 X151.496 Y83.768 E2.30015
G1 X152.133 Y84.456 E2.33133
G1 X152.708 Y85.197 E2.36253
G1 X153.219 Y85.983 E2.39371
G1 X153.661 Y86.811 E2.42493
G1 X154.03 Y87.673 E2.45612
G1 X154.325 Y88.563 E2.4873
G1 X154.543 Y89.475 E2.51849
G1 X154.683 Y90.403 E2.5497
G1 X154.741 Y91.264 E2.57841
G1 X154.75 Y91.584 E2.58905
G1 X154.754 Y91.893 E2.59933
G1 X154.754 Y142.881 E4.2952
G1 X154.744 Y143.608 E4.31938
G1 X154.691 Y144.545 E4.3506
G1 X154.559 Y145.473 E4.38177
G1 X154.348 Y146.387 E4.41297
G1 X154.059 Y147.279 E4.44416
G1 X153.696 Y148.144 E4.47536
G1 X153.261 Y148.975 E4.50656
G1 X152.756 Y149.765 E4.53774
G1 X152.186 Y150.51 E4.56894
G1 X151.555 Y151.204 E4.60014
G1 X150.866 Y151.841 E4.63135
G1 X150.126 Y152.417 E4.66254
G1 X149.34 Y152.928 E4.69372
G1 X148.513 Y153.37 E4.72491
G1 X147.651 Y153.74 E4.75611
G1 X146.761 Y154.035 E4.78729
G1 X145.849 Y154.254 E4.81849
G1 X144.922 Y154.394 E4.84967
G1 X144.019 Y154.454 E4.87977
G1 X143.617 Y154.464 E4.89314
G1 X143.343 Y154.467 E4.90226
G1 X92.427 Y154.466 E6.59573
G1 X91.729 Y154.457 E6.61895
G1 X90.793 Y154.405 E6.65013
G1 X89.864 Y154.273 E6.68134
G1 X88.95 Y154.063 E6.71253
G1 X88.057 Y153.776 E6.74373
G1 X87.192 Y153.413 E6.77493
G1 X86.361 Y152.979 E6.80611
G1 X85.57 Y152.475 E6.8373
G1 X84.825 Y151.905 E6.8685
G1 X84.131 Y151.274 E6.8997
G1 X83.494 Y150.587 E6.93086
G1 X82.917 Y149.847 E6.96207
G1 X82.405 Y149.061 E6.99327
G1 X81.962 Y148.234 E7.02447
G1 X81.591 Y147.373 E7.05566
G1 X81.295 Y146.483 E7.08685
G1 X81.076 Y145.571 E7.11805
G1 X80.935 Y144.644 E7.14923
G1 X80.875 Y143.755 E7.17887
G1 X80.866 Y143.422 E7.18995
G1 X80.862 Y143.125 E7.19983
G1 X80.863 Y92.088 E8.89733
G1 X80.872 Y91.423 E8.91945
G1 X80.925 Y90.487 E8.95063
G1 X81.057 Y89.558 E8.98184
G1 X81.268 Y88.644 E9.01304
G1 X81.556 Y87.752 E9.04421
G1 X81.919 Y86.887 E9.07541
G1 X82.354 Y86.056 E9.10661
G1 X82.858 Y85.266 E9.13778
G1 X83.428 Y84.521 E9.16898
G1 X84.06 Y83.827 E9.2002
G0 F6000 X84.451 Y84.002
G1 F1200 X85.136 Y83.386 E9.23084
G1 X85.872 Y82.833 E9.26146
G1 X86.653 Y82.345 E9.29209
G1 X87.473 Y81.927 E9.3227
G1 X88.327 Y81.582 E9.35333
G1 X89.207 Y81.312 E9.38395
G1 X90.107 Y81.12 E9.41456
G1 X91.021 Y81.006 E9.44519
G1 X91.574 Y80.976 E9.46361
G1 X91.895 Y80.967 E9.47429
G1 X92.192 Y80.963 E9.48417
G1 X143.047 Y80.963 E11.17562
G1 X143.897 Y80.974 E11.20389
G1 X144.816 Y81.027 E11.23451
G1 X145.727 Y81.16 E11.26513
G1 X146.623 Y81.371 E11.29574
G1 X147.497 Y81.659 E11.32635
G1 X148.344 Y82.022 E11.357
G1 X149.155 Y82.457 E11.38761
G1 X149.925 Y82.961 E11.41822
G1 X150.649 Y83.53 E11.44884
G1 X151.321 Y84.16 E11.47948
G1 X151.936 Y84.845 E11.5101
G1 X152.489 Y85.581 E11.54072
G1 X152.976 Y86.362 E11.57133
G1 X153.393 Y87.183 E11.60196
G1 X153.738 Y88.037 E11.63259
G1 X154.007 Y88.917 E11.6632
G1 X154.199 Y89.818 E11.69384
G1 X154.312 Y90.731 E11.72444
G1 X154.341 Y91.275 E11.74256
G1 X154.35 Y91.595 E11.7532
G1 X154.354 Y91.893 E11.76312
G1 X154.354 Y142.876 E13.45882
G1 X154.344 Y143.603 E13.483
G1 X154.291 Y144.522 E13.51362
G1 X154.159 Y145.433 E13.54423
G1 X153.948 Y146.329 E13.57485
G1 X153.661 Y147.204 E13.60548
G1 X153.298 Y148.05 E13.6361
G1 X152.864 Y148.862 E13.66672
G1 X152.36 Y149.633 E13.69736
G1 X151.792 Y150.357 E13.72796
G1 X151.163 Y151.029 E13.75858
G1 X150.478 Y151.644 E13.7892
G1 X149.742 Y152.197 E13.81981
G1 X148.961 Y152.685 E13.85044
G1 X148.141 Y153.103 E13.88106
G1 X147.287 Y153.448 E13.91169
G1 X146.407 Y153.717 E13.9423
G1 X145.506 Y153.91 E13.97294
G1 X144.593 Y154.023 E14.00354
G1 X144.009 Y154.054 E14.02299
G1 X143.607 Y154.064 E14.03637
G1 X143.343 Y154.067 E14.04515
G1 X92.432 Y154.066 E15.73846
G1 X91.734 Y154.057 E15.76167
G1 X90.815 Y154.005 E15.79229
G1 X89.904 Y153.874 E15.8229
G1 X89.008 Y153.664 E15.85351
G1 X88.133 Y153.377 E15.88414
G1 X87.286 Y153.015 E15.91477
G1 X86.474 Y152.581 E15.9454
G1 X85.703 Y152.079 E15.976
G1 X84.978 Y151.511 E16.00663
G1 X84.305 Y150.882 E16.03727
G1 X83.69 Y150.198 E16.06786
G1 X83.136 Y149.463 E16.09847
G1 X82.648 Y148.682 E16.1291
G1 X82.229 Y147.862 E16.15973
G1 X81.883 Y147.009 E16.19035
G1 X81.613 Y146.129 E16.22096
G1 X81.42 Y145.228 E16.25161
G1 X81.306 Y144.315 E16.28221
G1 X81.275 Y143.744 E16.30123
G1 X81.266 Y143.411 E16.31231
G1 X81.262 Y143.125 E16.32183
G1 X81.263 Y92.094 E18.01912
G1 X81.272 Y91.429 E18.04124
G1 X81.324 Y90.509 E18.07189
G1 X81.456 Y89.598 E18.10251
G1 X81.667 Y88.702 E18.13312
G1 X81.954 Y87.827 E18.16375
G1 X82.317 Y86.981 E18.19437
G1 X82.751 Y86.169 E18.22499
G1 X83.254 Y85.398 E18.25561
G1 X83.823 Y84.674 E18.28624
G1 X84.451 Y84.002 E18.31683
G0 F6000 X84.843 Y84.18
G1 F1200 X85.524 Y83.587 E18.34687
G1 X86.256 Y83.057 E18.37692
G1 X87.031 Y82.594 E18.40695
G1 X87.844 Y82.201 E18.43698
G1 X88.689 Y81.881 E18.46704
G1 X89.558 Y81.638 E18.49705
G1 X90.446 Y81.472 E18.52709
G1 X91.585 Y81.376 E18.56511
G1 X91.906 Y81.367 E18.57579
G1 X92.192 Y81.363 E18.58531
G1 X143.047 Y81.363 E20.27675
G1 X143.891 Y81.374 E20.30482
G1 X144.793 Y81.427 E20.33488
G1 X145.686 Y81.559 E20.3649
G1 X146.564 Y81.77 E20.39493
G1 X147.42 Y82.058 E20.42497
G1 X148.247 Y82.42 E20.455
G1 X149.039 Y82.855 E20.48505
G1 X149.79 Y83.357 E20.5151
G1 X150.493 Y83.924 E20.54514
G1 X151.143 Y84.551 E20.57518
G1 X151.735 Y85.233 E20.60521
G1 X152.265 Y85.964 E20.63524
G1 X152.727 Y86.74 E20.66528
G1 X153.12 Y87.553 E20.69532
G1 X153.438 Y88.398 E20.72534
G1 X153.681 Y89.268 E20.75539
G1 X153.846 Y90.156 E20.78543
G1 X153.941 Y91.286 E20.82315
G1 X153.95 Y91.606 E20.83379
G1 X153.954 Y91.893 E20.84334
G1 X153.954 Y142.87 E22.53884
G1 X153.944 Y143.597 E22.56302
G1 X153.892 Y144.499 E22.59307
G1 X153.76 Y145.392 E22.6231
G1 X153.549 Y146.271 E22.65316
G1 X153.262 Y147.127 E22.68319
G1 X152.9 Y147.954 E22.71322
G1 X152.466 Y148.746 E22.74326
G1 X151.964 Y149.497 E22.7733
G1 X151.398 Y150.2 E22.80332
G1 X150.771 Y150.851 E22.83338
G1 X150.09 Y151.443 E22.86339
G1 X149.359 Y151.973 E22.89342
G1 X148.583 Y152.436 E22.92348
G1 X147.77 Y152.829 E22.95351
G1 X146.925 Y153.149 E22.98357
G1 X146.056 Y153.392 E23.01358
G1 X145.168 Y153.557 E23.04362
G1 X143.999 Y153.654 E23.08263
G1 X143.597 Y153.664 E23.09601
G1 X143.343 Y153.667 E23.10446
G1 X92.437 Y153.666 E24.7976
G1 X91.739 Y153.657 E24.82081
G1 X90.838 Y153.606 E24.85083
G1 X89.944 Y153.474 E24.88089
G1 X89.066 Y153.265 E24.91091
G1 X88.209 Y152.978 E24.94097
G1 X87.382 Y152.617 E24.97098
G1 X86.589 Y152.184 E25.00103
G1 X85.838 Y151.683 E25.03106
G1 X85.134 Y151.117 E25.0611
G1 X84.483 Y150.491 E25.09114
G1 X83.89 Y149.81 E25.12117
G1 X83.36 Y149.079 E25.1512
G1 X82.896 Y148.304 E25.18125
G1 X82.502 Y147.491 E25.2113
G1 X82.182 Y146.647 E25.24132
G1 X81.938 Y145.777 E25.27137
G1 X81.772 Y144.889 E25.30142
G1 X81.675 Y143.734 E25.33997
G1 X81.666 Y143.401 E25.35105
G1 X81.662 Y143.125 E25.36023
G1 X81.663 Y92.099 E27.05736
G1 X81.672 Y91.434 E27.07948
G1 X81.724 Y90.532 E27.10953
G1 X81.856 Y89.639 E27.13955
G1 X82.066 Y88.761 E27.16958
G1 X82.353 Y87.904 E27.19964
G1 X82.715 Y87.077 E27.22967
G1 X83.148 Y86.285 E27.25969
G1 X83.65 Y85.534 E27.28973
G1 X84.217 Y84.83 E27.3198
G1 X84.843 Y84.18 E27.34981
G1 F2700 E22.34981
;MESH:Vr Headset v2.1.stl
G0 F6000 X91.45 Y91.152
G0 X92.282 Y91.983
G0 X92.462 Y142.867
;TYPE:WALL-INNER
G1 F2700 E27.34981
G1 F1200 X92.462 Y92.163 E29.03623
G1 X143.154 Y92.163 E30.72226
G1 X143.155 Y142.867 E32.40868
G1 X92.462 Y142.867 E34.09473
G0 F6000 X92.062 Y143.267
;TYPE:WALL-OUTER
G1 F1200 X92.062 Y91.763 E35.80776
G1 X143.554 Y91.763 E37.5204
G1 X143.555 Y143.267 E39.23343
G1 X92.062 Y143.267 E40.94609
G0 F6000 X92.332 Y142.997
G0 X92.572 Y142.477
G0 X92.852 Y142.477
;TYPE:SKIN
G1 F1200 X92.852 Y92.553 E42.60657
G1 X142.764 Y92.553 E44.26665
G1 X142.765 Y142.477 E45.92713
G1 X92.852 Y142.477 E47.58724
G0 F6000 X93.101 Y142.315
G1 F1200 X93.011 Y142.226 E47.59145
G0 F6000 X93.011 Y141.66
G1 F1200 X93.666 Y142.315 E47.62226
G0 F6000 X94.232 Y142.315
G1 F1200 X93.011 Y141.094 E47.67969
G0 F6000 X93.011 Y140.528
G1 F1200 X94.798 Y142.315 E47.76375
G0 F6000 X95.363 Y142.315
G1 F1200 X93.011 Y139.963 E47.87438
G0 F6000 X93.011 Y139.397
G1 F1200 X95.929 Y142.315 E48.01163
G0 F6000 X96.495 Y142.315
G1 F1200 X93.011 Y138.831 E48.17551
G0 F6000 X93.011 Y138.266
G1 F1200 X97.061 Y142.315 E48.36598
G0 F6000 X97.626 Y142.315
G1 F1200 X93.011 Y137.7 E48.58306
G0 F6000 X93.011 Y137.134
G1 F1200 X98.192 Y142.315 E48.82676
G0 F6000 X98.758 Y142.315
G1 F1200 X93.011 Y136.569 E49.09706
G0 F6000 X93.011 Y136.003
G1 F1200 X99.323 Y142.315 E49.39395
G0 F6000 X99.889 Y142.315
G1 F1200 X93.011 Y135.437 E49.71747
G0 F6000 X93.011 Y134.872
G1 F1200 X100.455 Y142.315 E50.06759
G0 F6000 X101.02 Y142.315
G1 F1200 X93.011 Y134.306 E50.44431
G0 F6000 X93.011 Y133.74
G1 F1200 X101.586 Y142.315 E50.84765
G0 F6000 X102.152 Y142.315
G1 F1200 X93.011 Y133.175 E51.27759
G0 F6000 X93.011 Y132.609
G1 F1200 X102.717 Y142.315 E51.73413
G0 F6000 X103.283 Y142.315
G1 F1200 X93.011 Y132.043 E52.2173
G0 F6000 X93.011 Y131.478
G1 F1200 X103.849 Y142.315 E52.72706
G0 F6000 X104.414 Y142.315
G1 F1200 X93.011 Y130.912 E53.26342
G0 F6000 X93.011 Y130.346
G1 F1200 X104.98 Y142.315 E53.82641
G0 F6000 X105.546 Y142.315
G1 F1200 X93.011 Y129.78 E54.41602
G0 F6000 X93.011 Y129.215
G1 F1200 X106.111 Y142.315 E55.0322
G0 F6000 X106.677 Y142.315
G1 F1200 X93.011 Y128.649 E55.67501
G0 F6000 X93.011 Y128.083
G1 F1200 X107.243 Y142.315 E56.34444
G0 F6000 X107.809 Y142.315
G1 F1200 X93.011 Y127.518 E57.04046
G0 F6000 X93.011 Y126.952
G1 F1200 X108.374 Y142.315 E57.76309
G0 F6000 X108.94 Y142.315
G1 F1200 X93.011 Y126.386 E58.51234
G0 F6000 X93.011 Y125.821
G1 F1200 X109.506 Y142.315 E59.2882
G0 F6000 X110.071 Y142.315
G1 F1200 X93.011 Y125.255 E60.09065
G0 F6000 X93.011 Y124.689
G1 F1200 X110.637 Y142.315 E60.91972
G0 F6000 X111.203 Y142.315
G1 F1200 X93.011 Y124.124 E61.77539
G0 F6000 X93.011 Y123.558
G1 F1200 X111.768 Y142.315 E62.65766
G0 F6000 X112.334 Y142.315
G1 F1200 X93.011 Y122.992 E63.56656
G0 F6000 X93.011 Y122.427
G1 F1200 X112.9 Y142.315 E64.50205
G0 F6000 X113.465 Y142.315
G1 F1200 X93.011 Y121.861 E65.46414
G0 F6000 X93.011 Y121.295
G1 F1200 X114.031 Y142.315 E66.45286
G0 F6000 X114.597 Y142.315
G1 F1200 X93.011 Y120.729 E67.4682
G0 F6000 X93.011 Y120.164
G1 F1200 X115.162 Y142.315 E68.51012
G0 F6000 X115.728 Y142.315
G1 F1200 X93.011 Y119.598 E69.57865
G0 F6000 X93.011 Y119.032
G1 F1200 X116.294 Y142.315 E70.67381
G0 F6000 X116.86 Y142.315
G1 F1200 X93.011 Y118.467 E71.79557
G0 F6000 X93.011 Y117.901
G1 F1200 X117.425 Y142.315 E72.94393
G0 F6000 X117.992 Y142.316
G1 F1200 X93.011 Y117.335 E74.11896
G0 F6000 X93.011 Y116.77
G1 F1200 X118.557 Y142.316 E75.32057
G0 F6000 X119.123 Y142.316
G1 F1200 X93.011 Y116.204 E76.5488
G0 F6000 X93.011 Y115.638
G1 F1200 X119.689 Y142.316 E77.80365
G0 F6000 X120.254 Y142.316
G1 F1200 X93.011 Y115.073 E79.08508
G0 F6000 X93.011 Y114.507
G1 F1200 X120.82 Y142.316 E80.39313
G0 F6000 X121.386 Y142.316
G1 F1200 X93.011 Y113.941 E81.7278
G0 F6000 X93.011 Y113.376
G1 F1200 X121.951 Y142.316 E83.08905
G0 F6000 X122.517 Y142.316
G1 F1200 X93.011 Y112.81 E84.47692
G0 F6000 X93.011 Y112.244
G1 F1200 X123.083 Y142.316 E85.89141
G0 F6000 X123.648 Y142.316
G1 F1200 X93.011 Y111.679 E87.33249
G0 F6000 X93.011 Y111.113
G1 F1200 X124.214 Y142.316 E88.80018
G0 F6000 X124.78 Y142.316
G1 F1200 X93.011 Y110.547 E90.2945
G0 F6000 X93.011 Y109.981
G1 F1200 X125.345 Y142.316 E91.81541
G0 F6000 X125.911 Y142.316
G1 F1200 X93.011 Y109.416 E93.36293
G0 F6000 X93.011 Y108.85
G1 F1200 X126.477 Y142.316 E94.93706
G0 F6000 X127.043 Y142.316
G1 F1200 X93.011 Y108.284 E96.53783
G0 F6000 X93.011 Y107.719
G1 F1200 X127.608 Y142.316 E98.16516
G0 F6000 X128.174 Y142.316
G1 F1200 X93.011 Y107.153 E99.81912
G0 F6000 X93.011 Y106.587
G1 F1200 X128.74 Y142.316 E101.4997
G0 F6000 X129.305 Y142.316
G1 F1200 X93.011 Y106.022 E103.20686
G0 F6000 X93.011 Y105.456
G1 F1200 X129.871 Y142.316 E104.94064
G0 F6000 X130.437 Y142.316
G1 F1200 X93.011 Y104.89 E106.70105
G0 F6000 X93.011 Y104.325
G1 F1200 X131.002 Y142.316 E108.48803
G0 F6000 X131.568 Y142.316
G1 F1200 X93.011 Y103.759 E110.30163
G0 F6000 X93.011 Y103.193
G1 F1200 X132.134 Y142.316 E112.14186
G0 F6000 X132.699 Y142.316
G1 F1200 X93.011 Y102.628 E114.00866
G0 F6000 X93.011 Y102.062
G1 F1200 X133.265 Y142.316 E115.90208
G0 F6000 X133.831 Y142.316
G1 F1200 X93.011 Y101.496 E117.82213
G0 F6000 X93.011 Y100.931
G1 F1200 X134.396 Y142.316 E119.76876
G0 F6000 X134.962 Y142.316
G1 F1200 X93.011 Y100.365 E121.742
G0 F6000 X93.011 Y99.799
G1 F1200 X135.528 Y142.316 E123.74187
G0 F6000 X136.094 Y142.316
G1 F1200 X93.011 Y99.233 E125.76836
G0 F6000 X93.011 Y98.668
G1 F1200 X136.659 Y142.316 E127.82143
G0 F6000 X137.225 Y142.316
G1 F1200 X93.011 Y98.102 E129.90112
G0 F6000 X93.011 Y97.536
G1 F1200 X137.791 Y142.316 E132.00744
G0 F6000 X138.356 Y142.316
G1 F1200 X93.011 Y96.971 E134.14033
G0 F6000 X93.011 Y96.405
G1 F1200 X138.922 Y142.316 E136.29984
G0 F6000 X139.488 Y142.316
G1 F1200 X93.011 Y95.839 E138.48597
G0 F6000 X93.011 Y95.274
G1 F1200 X140.053 Y142.316 E140.69869
G0 F6000 X140.619 Y142.316
G1 F1200 X93.011 Y94.708 E142.93802
G0 F6000 X93.011 Y94.142
G1 F1200 X141.185 Y142.316 E145.20398
G0 F6000 X141.75 Y142.316
G1 F1200 X93.011 Y93.577 E147.49651
G0 F6000 X93.011 Y93.011
G1 F1200 X142.316 Y142.316 E149.81567
G0 F6000 X142.604 Y142.038
G1 F1200 X93.278 Y92.713 E152.13579
G0 F6000 X93.844 Y92.713
G1 F1200 X142.604 Y141.472 E154.42928
G0 F6000 X142.604 Y140.907
G1 F1200 X94.41 Y92.713 E156.69618
G0 F6000 X94.975 Y92.713
G1 F1200 X142.604 Y140.341 E158.93648
G0 F6000 X142.604 Y139.775
G1 F1200 X95.541 Y92.713 E161.15016
G0 F6000 X96.107 Y92.713
G1 F1200 X142.604 Y139.21 E163.33723
G0 F6000 X142.604 Y138.644
G1 F1200 X96.672 Y92.713 E165.49771
G0 F6000 X97.238 Y92.713
G1 F1200 X142.604 Y138.078 E167.63156
G0 F6000 X142.604 Y137.513
G1 F1200 X97.804 Y92.713 E169.73882
G0 F6000 X98.369 Y92.713
G1 F1200 X142.604 Y136.947 E171.81947
G0 F6000 X142.604 Y136.381
G1 F1200 X98.935 Y92.713 E173.87351
G0 F6000 X99.501 Y92.713
G1 F1200 X142.604 Y135.816 E175.90094
G0 F6000 X142.604 Y135.25
G1 F1200 X100.066 Y92.713 E177.90177
G0 F6000 X100.632 Y92.713
G1 F1200 X142.604 Y134.684 E179.87598
G0 F6000 X142.604 Y134.119
G1 F1200 X101.198 Y92.713 E181.82359
G0 F6000 X101.763 Y92.713
G1 F1200 X142.604 Y133.553 E183.74461
G0 F6000 X142.604 Y132.987
G1 F1200 X102.329 Y92.713 E185.639
G0 F6000 X102.895 Y92.713
G1 F1200 X142.604 Y132.422 E187.50679
G0 F6000 X142.604 Y131.856
G1 F1200 X103.461 Y92.713 E189.34795
G0 F6000 X104.026 Y92.713
G1 F1200 X142.604 Y131.29 E191.16252
