;FLAVOR:Marlin
;TIME:9079
;Filament used: 7.40875m
;Layer height: 0.2
;MINX:79.478
;MINY:80.945
;MINZ:0.2
;MAXX:155.113
;MAXY:156.592
;MAXZ:61
;Generated with Cura_SteamEngine 4.13.1
M140 S50
M105
M190 S50
M104 S200
M105
M109 S200
M82 ;absolute extrusion mode
; Ender 3 Custom Start G-code
G92 E0 ; Reset Extruder
G28 ; Home all axes
G1 Z2.0 F3000 ; Move Z Axis up little to prevent scratching of Heat Bed
G1 X0.1 Y20 Z0.3 F5000.0 ; Move to start position
G1 X0.1 Y200.0 Z0.3 F1500.0 E15 ; Draw the first line
G1 X0.4 Y200.0 Z0.3 F5000.0 ; Move to side a little
G1 X0.4 Y20 Z0.3 F1500.0 E30 ; Draw the second line
G92 E0 ; Reset Extruder
G1 Z2.0 F3000 ; Move Z Axis up little to prevent scratching of Heat Bed
G1 X5 Y20 Z0.3 F5000.0 ; Move over to prevent blob squish
G92 E0
G92 E0
G1 F2700 E-5
;LAYER_COUNT:306
;LAYER:0
M107
G0 F6000 X82.675 Y84.21 Z0.2
;TYPE:SKIRT
G1 F2700 E0
G1 F1200 X83.363 Y83.573 E0.03119
G1 X84.103 Y82.997 E0.06237
G1 X84.889 Y82.485 E0.09357
G1 X85.716 Y82.043 E0.12476
G1 X86.578 Y81.673 E0.15596
G1 X87.468 Y81.377 E0.18716
G1 X88.38 Y81.159 E0.21835
G1 X89.307 Y81.018 E0.24953
G1 X90.213 Y80.958 E0.27973
G1 X90.616 Y80.948 E0.29314
G1 X90.889 Y80.945 E0.30222
G1 X143.406 Y80.945 E2.04894
G1 X144.262 Y80.956 E2.07742
G1 X145.198 Y81.01 E2.1086
G1 X146.126 Y81.142 E2.13978
G1 X147.04 Y81.354 E2.17098
G1 X147.932 Y81.643 E2.20217
G1 X148.797 Y82.006 E2.23337
G1 X149.627 Y82.442 E2.26455
G1 X150.418 Y82.947 E2.29577
G1 X151.162 Y83.518 E2.32696
G1 X151.855 Y84.15 E2.35815
G1 X152.492 Y84.838 E2.38934
G1 X153.067 Y85.579 E2.42053
G1 X153.578 Y86.365 E2.45172
G1 X154.02 Y87.193 E2.48293
G1 X154.389 Y88.055 E2.51412
G1 X154.684 Y88.945 E2.54531
G1 X154.902 Y89.857 E2.57649
G1 X155.042 Y90.785 E2.60771
G1 X155.099 Y91.639 E2.63618
G1 X155.108 Y91.952 E2.64659
G1 X155.113 Y92.268 E2.6571
G1 X155.113 Y145.006 E4.41117
G1 X155.103 Y145.733 E4.43536
G1 X155.05 Y146.67 E4.46657
G1 X154.918 Y147.598 E4.49775
G1 X154.707 Y148.512 E4.52895
G1 X154.418 Y149.404 E4.56013
G1 X154.055 Y150.269 E4.59133
G1 X153.62 Y151.1 E4.62253
G1 X153.115 Y151.89 E4.65372
G1 X152.545 Y152.635 E4.68492
G1 X151.914 Y153.329 E4.71611
G1 X151.225 Y153.966 E4.74732
G1 X150.485 Y154.542 E4.77851
G1 X149.699 Y155.053 E4.80969
G1 X148.872 Y155.495 E4.84088
G1 X148.01 Y155.865 E4.87208
G1 X147.12 Y156.16 E4.90327
G1 X146.208 Y156.379 E4.93446
G1 X145.281 Y156.519 E4.96564
G1 X144.378 Y156.579 E4.99574
G1 X143.976 Y156.589 E5.00912
G1 X143.702 Y156.592 E5.01823
G1 X91.043 Y156.591 E6.76968
G1 X90.345 Y156.582 E6.7929
G1 X89.409 Y156.53 E6.82408
G1 X88.48 Y156.398 E6.85528
G1 X87.566 Y156.188 E6.88648
G1 X86.673 Y155.901 E6.91767
G1 X85.808 Y155.538 E6.94887
G1 X84.977 Y155.104 E6.98006
G1 X84.186 Y154.6 E7.01125
G1 X83.441 Y154.03 E7.04245
G1 X82.747 Y153.399 E7.07365
G1 X82.11 Y152.712 E7.10481
G1 X81.533 Y151.972 E7.13602
G1 X81.021 Y151.186 E7.16722
G1 X80.578 Y150.359 E7.19842
G1 X80.207 Y149.498 E7.2296
G1 X79.911 Y148.608 E7.2608
G1 X79.692 Y147.696 E7.292
G1 X79.551 Y146.769 E7.32318
G1 X79.49 Y145.858 E7.35355
G1 X79.481 Y145.498 E7.36553
G1 X79.478 Y145.223 E7.37468
G1 X79.478 Y92.47 E9.12925
G1 X79.487 Y91.806 E9.15133
G1 X79.54 Y90.87 E9.18252
G1 X79.672 Y89.941 E9.21372
G1 X79.883 Y89.027 E9.24492
G1 X80.171 Y88.135 E9.2761
G1 X80.534 Y87.27 E9.3073
G1 X80.969 Y86.439 E9.3385
G1 X81.473 Y85.648 E9.36969
G1 X82.043 Y84.904 E9.40087
G1 X82.675 Y84.21 E9.43209
G0 F6000 X83.067 Y84.384
G1 F1200 X83.752 Y83.769 E9.4627
G1 X84.487 Y83.216 E9.4933
G1 X85.268 Y82.728 E9.52393
G1 X86.089 Y82.31 E9.55457
G1 X86.942 Y81.965 E9.58517
G1 X87.822 Y81.695 E9.61579
G1 X88.723 Y81.503 E9.64643
G1 X89.636 Y81.389 E9.67703
G1 X90.223 Y81.358 E9.69658
G1 X90.626 Y81.348 E9.70999
G1 X90.889 Y81.345 E9.71874
G1 X143.406 Y81.345 E11.46546
G1 X144.256 Y81.356 E11.49373
G1 X145.175 Y81.409 E11.52435
G1 X146.086 Y81.542 E11.55497
G1 X146.982 Y81.753 E11.58559
G1 X147.856 Y82.041 E11.61619
G1 X148.703 Y82.404 E11.64684
G1 X149.514 Y82.839 E11.67745
G1 X150.284 Y83.343 E11.70806
G1 X151.008 Y83.912 E11.73869
G1 X151.68 Y84.542 E11.76933
G1 X152.295 Y85.227 E11.79994
G1 X152.848 Y85.963 E11.83056
G1 X153.335 Y86.744 E11.86118
G1 X153.752 Y87.565 E11.8918
G1 X154.097 Y88.419 E11.92244
G1 X154.366 Y89.299 E11.95304
G1 X154.558 Y90.2 E11.98368
G1 X154.671 Y91.113 E12.01428
G1 X154.7 Y91.65 E12.03217
G1 X154.709 Y91.963 E12.04258
G1 X154.713 Y92.268 E12.05273
G1 X154.713 Y145.001 E13.80663
G1 X154.703 Y145.728 E13.83082
G1 X154.65 Y146.647 E13.86143
G1 X154.518 Y147.558 E13.89205
G1 X154.307 Y148.454 E13.92267
G1 X154.02 Y149.329 E13.95329
G1 X153.657 Y150.175 E13.98391
G1 X153.223 Y150.987 E14.01454
G1 X152.719 Y151.758 E14.04517
G1 X152.151 Y152.482 E14.07578
G1 X151.522 Y153.154 E14.10639
G1 X150.837 Y153.769 E14.13701
G1 X150.101 Y154.322 E14.16763
G1 X149.32 Y154.81 E14.19826
G1 X148.5 Y155.228 E14.22887
G1 X147.646 Y155.573 E14.25951
G1 X146.766 Y155.842 E14.29011
G1 X145.865 Y156.035 E14.32076
G1 X144.952 Y156.148 E14.35136
G1 X144.368 Y156.179 E14.37081
G1 X143.966 Y156.189 E14.38419
G1 X143.702 Y156.192 E14.39297
G1 X91.048 Y156.191 E16.14425
G1 X90.35 Y156.182 E16.16746
G1 X89.431 Y156.13 E16.19808
G1 X88.52 Y155.999 E16.22869
G1 X87.624 Y155.789 E16.2593
G1 X86.749 Y155.502 E16.28993
G1 X85.902 Y155.14 E16.32056
G1 X85.09 Y154.706 E16.35119
G1 X84.319 Y154.204 E16.38179
G1 X83.594 Y153.636 E16.41242
G1 X82.921 Y153.007 E16.44306
G1 X82.306 Y152.323 E16.47365
G1 X81.752 Y151.588 E16.50426
G1 X81.264 Y150.807 E16.53489
G1 X80.845 Y149.987 E16.56552
G1 X80.499 Y149.134 E16.59614
G1 X80.229 Y148.254 E16.62675
G1 X80.036 Y147.353 E16.6574
G1 X79.922 Y146.44 E16.688
G1 X79.89 Y145.848 E16.70772
G1 X79.881 Y145.488 E16.7197
G1 X79.878 Y145.223 E16.72851
G1 X79.878 Y92.475 E18.48292
G1 X79.887 Y91.811 E18.50501
G1 X79.939 Y90.892 E18.53562
G1 X80.071 Y89.981 E18.56624
G1 X80.282 Y89.085 E18.59685
G1 X80.57 Y88.21 E18.62749
G1 X80.932 Y87.364 E18.6581
G1 X81.366 Y86.552 E18.68872
G1 X81.87 Y85.781 E18.71936
G1 X82.438 Y85.057 E18.74996
G1 X83.067 Y84.384 E18.7806
G0 F6000 X83.458 Y84.563
G1 F1200 X84.14 Y83.97 E18.81066
G1 X84.871 Y83.44 E18.84069
G1 X85.646 Y82.977 E18.87072
G1 X86.459 Y82.584 E18.90075
G1 X87.304 Y82.264 E18.9308
G1 X88.173 Y82.021 E18.96082
G1 X89.061 Y81.855 E18.99086
G1 X90.233 Y81.758 E19.02998
G1 X90.636 Y81.748 E19.04339
G1 X90.889 Y81.745 E19.0518
G1 X143.406 Y81.745 E20.79852
G1 X144.25 Y81.756 E20.8266
G1 X145.152 Y81.809 E20.85665
G1 X146.045 Y81.941 E20.88667
G1 X146.923 Y82.152 E20.91671
G1 X147.779 Y82.44 E20.94675
G1 X148.606 Y82.802 E20.97677
G1 X149.398 Y83.237 E21.00683
G1 X150.149 Y83.739 E21.03687
G1 X150.852 Y84.306 E21.06691
G1 X151.502 Y84.933 E21.09695
G1 X152.094 Y85.615 E21.12699
G1 X152.624 Y86.346 E21.15702
G1 X153.086 Y87.122 E21.18705
G1 X153.479 Y87.935 E21.21709
G1 X153.797 Y88.78 E21.24712
G1 X154.04 Y89.65 E21.27716
G1 X154.205 Y90.538 E21.3072
G1 X154.3 Y91.662 E21.34472
G1 X154.309 Y91.975 E21.35513
G1 X154.313 Y92.268 E21.36488
G1 X154.313 Y144.995 E23.11859
G1 X154.303 Y145.722 E23.14277
G1 X154.251 Y146.624 E23.17282
G1 X154.119 Y147.517 E23.20284
G1 X153.908 Y148.396 E23.23291
G1 X153.621 Y149.252 E23.26294
G1 X153.259 Y150.079 E23.29296
G1 X152.825 Y150.871 E23.323
G1 X152.323 Y151.622 E23.35305
G1 X151.757 Y152.325 E23.38307
G1 X151.13 Y152.976 E23.41313
G1 X150.449 Y153.568 E23.44314
G1 X149.718 Y154.098 E23.47317
G1 X148.942 Y154.561 E23.50323
G1 X148.129 Y154.954 E23.53326
G1 X147.284 Y155.274 E23.56331
G1 X146.415 Y155.517 E23.59332
G1 X145.527 Y155.682 E23.62336
G1 X144.358 Y155.779 E23.66238
G1 X143.956 Y155.789 E23.67575
G1 X143.702 Y155.792 E23.6842
G1 X91.053 Y155.791 E25.43532
G1 X90.355 Y155.782 E25.45853
G1 X89.454 Y155.731 E25.48855
G1 X88.56 Y155.599 E25.51861
G1 X87.682 Y155.39 E25.54862
G1 X86.825 Y155.103 E25.57868
G1 X85.998 Y154.742 E25.6087
G1 X85.205 Y154.309 E25.63875
G1 X84.454 Y153.808 E25.66877
G1 X83.75 Y153.242 E25.69882
G1 X83.099 Y152.616 E25.72886
G1 X82.506 Y151.935 E25.75889
G1 X81.976 Y151.204 E25.78892
G1 X81.512 Y150.429 E25.81897
G1 X81.118 Y149.616 E25.84901
G1 X80.798 Y148.772 E25.87904
G1 X80.554 Y147.902 E25.90909
G1 X80.388 Y147.014 E25.93913
G1 X80.29 Y145.838 E25.97838
G1 X80.281 Y145.478 E25.99036
G1 X80.278 Y145.223 E25.99884
G1 X80.278 Y92.481 E27.75305
G1 X80.287 Y91.817 E27.77514
G1 X80.339 Y90.915 E27.80519
G1 X80.471 Y90.022 E27.83521
G1 X80.681 Y89.143 E27.86527
G1 X80.968 Y88.287 E27.8953
G1 X81.33 Y87.46 E27.92532
G1 X81.764 Y86.667 E27.95539
G1 X82.265 Y85.917 E27.98539
G1 X82.832 Y85.213 E28.01545
G1 X83.458 Y84.563 E28.04547
G1 F2700 E23.04547
;MESH:Vr Headset v2.0.stl
G0 F6000 X90.065 Y91.534
G0 X90.897 Y92.365
G0 X143.331 Y92.727
G0 X143.514 Y144.992
;TYPE:WALL-INNER
G1 F2700 E28.04547
G1 F1200 X91.078 Y144.992 E29.7895
G1 X91.077 Y92.545 E31.53389
G1 X143.513 Y92.545 E33.27792
G1 X143.514 Y144.992 E35.02231
G0 F6000 X143.914 Y145.392
;TYPE:WALL-OUTER
G1 F1200 X90.678 Y145.392 E36.79295
G1 X90.677 Y92.145 E38.56395
G1 X143.913 Y92.145 E40.33459
G1 X143.914 Y145.392 E42.10559
G0 F6000 X143.644 Y145.122
G0 X143.404 Y144.602
G0 X143.124 Y144.602
;TYPE:SKIN
G1 F1200 X91.468 Y144.602 E43.82368
G1 X91.467 Y92.935 E45.54213
G1 X143.123 Y92.935 E47.26022
G1 X143.124 Y144.602 E48.97867
G1 F2700 E43.97867
G0 F6000 X143.404 Y144.602
G0 X91.832 Y144.882
G1 F2700 E48.97867
G0 F6000 X91.832 Y144.441
G1 F1200 X91.626 Y144.235 E48.98836
G0 F6000 X91.626 Y143.669
G1 F1200 X92.398 Y144.441 E49.02467
G0 F6000 X92.964 Y144.441
G1 F1200 X91.626 Y143.104 E49.08758
G0 F6000 X91.626 Y142.538
G1 F1200 X93.529 Y144.441 E49.17709
G0 F6000 X94.095 Y144.441
G1 F1200 X91.626 Y141.972 E49.29323
G0 F6000 X91.626 Y141.407
G1 F1200 X94.661 Y144.441 E49.43596
G0 F6000 X95.226 Y144.441
G1 F1200 X91.626 Y140.841 E49.60529
G0 F6000 X91.626 Y140.275
G1 F1200 X95.792 Y144.441 E49.80125
G0 F6000 X96.358 Y144.441
G1 F1200 X91.626 Y139.71 E50.0238
G0 F6000 X91.626 Y139.144
G1 F1200 X96.923 Y144.441 E50.27296
G0 F6000 X97.489 Y144.441
G1 F1200 X91.626 Y138.578 E50.54874
G0 F6000 X91.626 Y138.013
G1 F1200 X98.055 Y144.441 E50.85111
G0 F6000 X98.62 Y144.441
G1 F1200 X91.626 Y137.447 E51.18009
G0 F6000 X91.626 Y136.881
G1 F1200 X99.186 Y144.441 E51.53569
G0 F6000 X99.752 Y144.441
G1 F1200 X91.626 Y136.316 E51.91789
G0 F6000 X91.626 Y135.75
G1 F1200 X100.317 Y144.441 E52.32668
G0 F6000 X100.883 Y144.441
G1 F1200 X91.626 Y135.184 E52.76211
G0 F6000 X91.626 Y134.618
G1 F1200 X101.449 Y144.441 E53.22415
G0 F6000 X102.015 Y144.441
G1 F1200 X91.626 Y134.053 E53.71279
G0 F6000 X91.626 Y133.487
G1 F1200 X102.58 Y144.441 E54.22804
G0 F6000 X103.146 Y144.441
G1 F1200 X91.626 Y132.921 E54.7699
G0 F6000 X91.626 Y132.356
G1 F1200 X103.712 Y144.441 E55.33837
G0 F6000 X104.277 Y144.441
G1 F1200 X91.626 Y131.79 E55.93343
G0 F6000 X91.626 Y131.224
G1 F1200 X104.843 Y144.441 E56.55512
G0 F6000 X105.409 Y144.441
G1 F1200 X91.626 Y130.659 E57.2034
G0 F6000 X91.626 Y130.093
G1 F1200 X105.974 Y144.441 E57.87829
G0 F6000 X106.54 Y144.441
G1 F1200 X91.626 Y129.527 E58.5798
G0 F6000 X91.626 Y128.962
G1 F1200 X107.106 Y144.441 E59.30791
G0 F6000 X107.671 Y144.441
G1 F1200 X91.626 Y128.396 E60.06261
G0 F6000 X91.626 Y127.83
G1 F1200 X108.237 Y144.441 E60.84394
G0 F6000 X108.803 Y144.441
G1 F1200 X91.626 Y127.265 E61.65187
G0 F6000 X91.626 Y126.699
G1 F1200 X109.368 Y144.441 E62.4864
G0 F6000 X109.934 Y144.441
G1 F1200 X91.626 Y126.133 E63.34756
G0 F6000 X91.626 Y125.568
G1 F1200 X110.5 Y144.441 E64.23531
G0 F6000 X111.065 Y144.441
G1 F1200 X91.626 Y125.002 E65.14966
G0 F6000 X91.626 Y124.436
G1 F1200 X111.631 Y144.441 E66.09063
G0 F6000 X112.197 Y144.441
G1 F1200 X91.626 Y123.87 E67.05823
G0 F6000 X91.626 Y123.305
G1 F1200 X112.763 Y144.441 E68.05243
G0 F6000 X113.328 Y144.441
G1 F1200 X91.626 Y122.739 E69.07322
G0 F6000 X91.626 Y122.173
G1 F1200 X113.894 Y144.441 E70.12064
G0 F6000 X114.46 Y144.441
G1 F1200 X91.626 Y121.608 E71.19466
G0 F6000 X91.626 Y121.042
G1 F1200 X115.025 Y144.441 E72.29527
G0 F6000 X115.591 Y144.441
G1 F1200 X91.626 Y120.476 E73.42251
G0 F6000 X91.626 Y119.911
G1 F1200 X116.157 Y144.441 E74.57635
G0 F6000 X116.722 Y144.441
G1 F1200 X91.626 Y119.345 E75.75679
G0 F6000 X91.626 Y118.779
G1 F1200 X117.288 Y144.441 E76.96385
G0 F6000 X117.854 Y144.441
G1 F1200 X91.626 Y118.214 E78.19752
G0 F6000 X91.626 Y117.648
G1 F1200 X118.419 Y144.441 E79.45778
G0 F6000 X118.985 Y144.441
G1 F1200 X91.626 Y117.082 E80.74466
G0 F6000 X91.626 Y116.517
G1 F1200 X119.551 Y144.441 E82.05814
G0 F6000 X120.116 Y144.441
G1 F1200 X91.626 Y115.951 E83.39823
G0 F6000 X91.626 Y115.385
G1 F1200 X120.682 Y144.441 E84.76493
G0 F6000 X121.248 Y144.441
G1 F1200 X91.626 Y114.819 E86.15826
G0 F6000 X91.626 Y114.254
G1 F1200 X121.813 Y144.441 E87.57816
G0 F6000 X122.379 Y144.441
G1 F1200 X91.626 Y113.688 E89.02469
G0 F6000 X91.626 Y113.122
G1 F1200 X122.945 Y144.441 E90.49784
G0 F6000 X123.511 Y144.441
G1 F1200 X91.626 Y112.557 E91.99759
G0 F6000 X91.626 Y111.991
G1 F1200 X124.076 Y144.441 E93.52394
G0 F6000 X124.642 Y144.441
G1 F1200 X91.626 Y111.425 E95.07691
G0 F6000 X91.626 Y110.86
G1 F1200 X125.208 Y144.441 E96.65648
G0 F6000 X125.773 Y144.441
G1 F1200 X91.626 Y110.294 E98.26265
G0 F6000 X91.626 Y109.728
G1 F1200 X126.339 Y144.441 E99.89544
G0 F6000 X126.905 Y144.441
G1 F1200 X91.626 Y109.163 E101.55483
G0 F6000 X91.626 Y108.597
G1 F1200 X127.47 Y144.441 E103.24083
G0 F6000 X128.036 Y144.441
G1 F1200 X91.626 Y108.031 E104.95344
G0 F6000 X91.626 Y107.466
G1 F1200 X128.602 Y144.441 E106.69266
G0 F6000 X129.167 Y144.441
G1 F1200 X91.626 Y106.9 E108.45847
G0 F6000 X91.626 Y106.334
G1 F1200 X129.733 Y144.441 E110.25091
G0 F6000 X130.299 Y144.441
G1 F1200 X91.626 Y105.769 E112.06994
G0 F6000 X91.626 Y105.203
G1 F1200 X130.864 Y144.441 E113.91558
G0 F6000 X131.43 Y144.441
G1 F1200 X91.626 Y104.637 E115.78783
G0 F6000 X91.626 Y104.071
G1 F1200 X131.996 Y144.441 E117.68672
G0 F6000 X132.562 Y144.441
G1 F1200 X91.626 Y103.506 E119.6122
G0 F6000 X91.626 Y102.94
G1 F1200 X133.127 Y144.441 E121.56428
G0 F6000 X133.693 Y144.441
G1 F1200 X91.626 Y102.374 E123.54298
G0 F6000 X91.626 Y101.809
G1 F1200 X134.259 Y144.441 E125.54828
G0 F6000 X134.824 Y144.441
G1 F1200 X91.626 Y101.243 E127.58018
G0 F6000 X91.626 Y100.677
G1 F1200 X135.39 Y144.441 E129.63871
G0 F6000 X135.956 Y144.441
G1 F1200 X91.626 Y100.112 E131.72383
G0 F6000 X91.626 Y99.546
G1 F1200 X136.521 Y144.441 E133.83555
G0 F6000 X137.087 Y144.441
G1 F1200 X91.626 Y98.98 E135.9739
G0 F6000 X91.626 Y98.415
G1 F1200 X137.653 Y144.441 E138.13884
G0 F6000 X138.218 Y144.441
G1 F1200 X91.626 Y97.849 E140.33039
G0 F6000 X91.626 Y97.283
G1 F1200 X138.784 Y144.441 E142.54856
G0 F6000 X139.35 Y144.441
G1 F1200 X91.626 Y96.718 E144.79332
G0 F6000 X91.626 Y96.152
G1 F1200 X139.915 Y144.441 E147.06469
G0 F6000 X140.481 Y144.441
G1 F1200 X91.626 Y95.586 E149.36268
G0 F6000 X91.626 Y95.021
G1 F1200 X141.047 Y144.441 E151.68727
G0 F6000 X141.612 Y144.441
G1 F1200 X91.626 Y94.455 E154.03846
G0 F6000 X91.626 Y93.889
G1 F1200 X142.178 Y144.441 E156.41627
G0 F6000 X142.744 Y144.441
G1 F1200 X91.626 Y93.323 E158.8207
G0 F6000 X91.963 Y93.094
G1 F1200 X142.963 Y144.094 E161.21959
G0 F6000 X142.963 Y143.529
G1 F1200 X92.529 Y93.094 E163.59187
G0 F6000 X93.094 Y93.094
G1 F1200 X142.963 Y142.963 E165.93756
G0 F6000 X142.963 Y142.397
G1 F1200 X93.66 Y93.094 E168.25662
G0 F6000 X94.226 Y93.094
G1 F1200 X142.963 Y141.832 E170.54908
G0 F6000 X142.963 Y141.266
G1 F1200 X94.791 Y93.094 E172.81494
G0 F6000 X95.357 Y93.094
G1 F1200 X142.963 Y140.7 E175.05418
G0 F6000 X142.963 Y140.135
G1 F1200 X95.923 Y93.094 E177.26682
G0 F6000 X96.488 Y93.094
G1 F1200 X142.963 Y139.569 E179.45287
G0 F6000 X142.963 Y139.003
G1 F1200 X97.054 Y93.094 E181.61228
G0 F6000 X97.62 Y93.094
G1 F1200 X142.963 Y138.438 E183.7451
G0 F6000 X142.963 Y137.872
G1 F1200 X98.186 Y93.094 E185.8513
G0 F6000 X98.751 Y93.094
G1 F1200 X142.963 Y137.306 E187.9309
G0 F6000 X142.963 Y136.741
G1 F1200 X99.317 Y93.094 E189.98389
G0 F6000 X99.883 Y93.094
G1 F1200 X142.963 Y136.175 E192.01027
G0 F6000 X142.963 Y135.609
